X:65
T:Nau Sorr Sion
R:Bourre
M:2/4
L:1/8
N:Mouvt de ronde
N:La Bourre 4th edition 1929, page 68
Z:Steve Mansfield www.lesession.co.uk May 2012
K:Bb
"Refrain" e2 d c | d2 B B/ B/ | c c B A/ A/ |
G2 F2 | e2 d c | d2 B A/ B/ | c c B2 !Fine! ||
z2 (3B B B | c f e f | c c (3 B B B |
c f e f | c c (3 B B B | c f e f | c2 c2 !D.C.!||

